assets/img/braze_icons/atom-02.svg

<svg fill="none" height="24" viewBox="0 0 24 24" width="24" xmlns="http://www.w3.org/2000/svg"><g fill="#801ed7"><path d="m12 10c-1.1046 0-2 .8954-2 2s.8954 2 2 2 2-.8954 2-2-.8954-2-2-2z"/><path clip-rule="evenodd" d="m2.56138 9.80291c.21349.72589.50948 1.47009.88207 2.21789-.74972 1.5049-1.20125 3.0192-1.27397 4.4113-.08048 1.5408.3047 3.0126 1.36603 4.0739 1.55164 1.5517 3.944 1.6575 6.26745.9741.72584-.2135 1.47004-.5094 2.21784-.882.7477.3726 1.492.6685 2.2178.882 2.3234.6834 4.7158.5776 6.2674-.9741 1.5517-1.5516 1.6575-3.944.9741-6.2674-.2135-.7258-.5094-1.4701-.882-2.2178.7785-1.5626 1.2374-3.13973 1.281-4.5806.0446-1.47818-.351-2.88266-1.373-3.90473-1.5517-1.55164-3.944-1.65745-6.2675-.97409-.7258.21348-1.47.50946-2.2178.88204-.7478-.37258-1.4921-.66856-2.21789-.88204-2.32344-.68336-4.71581-.57755-6.26744.97409-1.55164 1.55163-1.65745 3.944-.97409 6.26744zm6.6772-5.3228c-2.02724-.59624-3.49739-.32194-4.2889.46957s-1.06581 2.26166-.46957 4.2889c.58409 1.98592 1.95222 4.26482 4.0051 6.31772 1.13851 1.1385 2.34659 2.0664 3.53559 2.7667 1.189-.7003 2.397-1.6282 3.5355-2.7667.2827-.2827.5527-.57.8099-.8608.3659-.4136.9978-.4524 1.4115-.0865s.4525.9979.0866 1.4116c-.2843.3213-.5823.6385-.8938.9499-.9035.9036-1.8585 1.6981-2.8315 2.3703.2244.0829.4459.1565.6639.2206 2.0272.5962 3.4974.3219 4.2889-.4696s1.0658-2.2617.4696-4.2889c-.5841-1.9859-1.9522-4.2648-4.0051-6.31769-1.1385-1.1385-2.3465-2.06639-3.5355-2.76674-1.189.70035-2.39705 1.62824-3.53555 2.76674-.29546.29547-.57719.59609-.84477.90033-.36473.41471-.9966.45522-1.41131.09049-.41471-.36474-.45523-.99661-.09049-1.41132.29584-.33638.60679-.66814.93236-.99371.90355-.90355 1.85855-1.69809 2.83152-2.37029-.2244-.0829-.44596-.15647-.66398-.2206zm-2.16758 12.49039c.90356.9036 1.85857 1.6981 2.83155 2.3703-.22439.0829-.44592.1565-.66393.2206-2.02723.5962-3.49739.3219-4.2889-.4696-.54507-.5451-.84364-1.3937-.78296-2.5554.03771-.722.21483-1.5334.53395-2.3974.6722.9729 1.46674 1.9279 2.37029 2.8315zm12.809-9.5907c-.0227.75159-.2008 1.60686-.5392 2.5228-.6722-.973-1.4667-1.92803-2.3703-2.8316-.9036-.90355-1.8586-1.69809-2.8315-2.37029.2244-.0829.4459-.15647.664-.2206 2.0272-.59624 3.4974-.32194 4.2889.46957.5256.52567.8213 1.33188.7881 2.43012z" fill-rule="evenodd"/></g></svg>

<svg width="24" height="24" viewBox="0 0 24 24" fill="none" xmlns="http://www.w3.org/2000/svg">
<path d="M12 10C10.8954 10 10 10.8954 10 12C10 13.1046 10.8954 14 12 14C13.1046 14 14 13.1046 14 12C14 10.8954 13.1046 10 12 10Z" fill="#801ED7"/>
<path fill-rule="evenodd" clip-rule="evenodd" d="M2.56138 9.80291C2.77487 10.5288 3.07086 11.273 3.44345 12.0208C2.69373 13.5257 2.2422 15.04 2.16948 16.4321C2.089 17.9729 2.47418 19.4447 3.53551 20.506C5.08715 22.0577 7.47951 22.1635 9.80296 21.4801C10.5288 21.2666 11.273 20.9707 12.0208 20.5981C12.7685 20.9707 13.5128 21.2666 14.2386 21.4801C16.562 22.1635 18.9544 22.0577 20.506 20.506C22.0577 18.9544 22.1635 16.562 21.4801 14.2386C21.2666 13.5128 20.9707 12.7685 20.5981 12.0208C21.3766 10.4582 21.8355 8.88107 21.8791 7.4402C21.9237 5.96202 21.5281 4.55754 20.5061 3.53547C18.9544 1.98383 16.5621 1.87802 14.2386 2.56138C13.5128 2.77486 12.7686 3.07084 12.0208 3.44342C11.273 3.07084 10.5287 2.77486 9.80291 2.56138C7.47947 1.87802 5.0871 1.98383 3.53547 3.53547C1.98383 5.0871 1.87802 7.47947 2.56138 9.80291ZM9.23858 4.48011C7.21134 3.88387 5.74119 4.15817 4.94968 4.94968C4.15817 5.74119 3.88387 7.21134 4.48011 9.23858C5.0642 11.2245 6.43233 13.5034 8.48521 15.5563C9.62372 16.6948 10.8318 17.6227 12.0208 18.323C13.2098 17.6227 14.4178 16.6948 15.5563 15.5563C15.839 15.2736 16.109 14.9863 16.3662 14.6955C16.7321 14.2819 17.364 14.2431 17.7777 14.609C18.1914 14.9749 18.2302 15.6069 17.8643 16.0206C17.58 16.3419 17.282 16.6591 16.9705 16.9705C16.067 17.8741 15.112 18.6686 14.139 19.3408C14.3634 19.4237 14.5849 19.4973 14.8029 19.5614C16.8301 20.1576 18.3003 19.8833 19.0918 19.0918C19.8833 18.3003 20.1576 16.8301 19.5614 14.8029C18.9773 12.817 17.6092 10.5381 15.5563 8.48521C14.4178 7.34671 13.2098 6.41882 12.0208 5.71847C10.8318 6.41882 9.62375 7.34671 8.48525 8.48521C8.18979 8.78068 7.90806 9.0813 7.64048 9.38554C7.27575 9.80025 6.64388 9.84076 6.22917 9.47603C5.81446 9.11129 5.77394 8.47942 6.13868 8.06471C6.43452 7.72833 6.74547 7.39657 7.07104 7.071C7.97459 6.16745 8.92959 5.37291 9.90256 4.70071C9.67816 4.61781 9.4566 4.54424 9.23858 4.48011ZM7.071 16.9705C7.97456 17.8741 8.92957 18.6686 9.90255 19.3408C9.67816 19.4237 9.45663 19.4973 9.23862 19.5614C7.21139 20.1576 5.74123 19.8833 4.94972 19.0918C4.40465 18.5467 4.10608 17.6981 4.16676 16.5364C4.20447 15.8144 4.38159 15.003 4.70071 14.139C5.37291 15.1119 6.16745 16.0669 7.071 16.9705ZM19.88 7.3798C19.8573 8.13139 19.6792 8.98666 19.3408 9.9026C18.6686 8.9296 17.8741 7.97457 16.9705 7.071C16.0669 6.16745 15.1119 5.37291 14.139 4.70071C14.3634 4.61781 14.5849 4.54424 14.803 4.48011C16.8302 3.88387 18.3004 4.15817 19.0919 4.94968C19.6175 5.47535 19.9132 6.28156 19.88 7.3798Z" fill="#801ED7"/>
</svg>
